src/svg/icon-instagram.svg

<svg fill="none" height="26" viewBox="0 0 26 26" width="26" xmlns="http://www.w3.org/2000/svg"><g stroke="#1300ed"><path d="m1 7.32577v11.34853c0 3.4781 2.91068 6.3257 6.46234 6.3257h11.07526c3.5517 0 6.4624-2.8476 6.4624-6.3257v-11.34853c0-3.47811-2.9107-6.32574-6.4624-6.32574h-11.07526c-3.56217-.010509-6.46234 2.83712-6.46234 6.32574z" stroke-miterlimit="10" stroke-width="1.5"/><path d="m9.65851 6.42822h6.68299c1.7621 0 3.2198 1.47797 3.2198 3.30385v6.52543c0 1.8258-1.4577 3.3038-3.2198 3.3038h-6.68299c-1.75246 0-3.21979-1.4789-3.21979-3.3038v-6.52543c0-1.82588 1.45773-3.30385 3.21979-3.30385zm6.56739 12.87218c1.7065 0 3.0745-1.4232 3.0745-3.1375v-6.33626c0-1.71436-1.368-3.13747-3.0745-3.13747h-6.4413c-1.70643 0-3.07442 1.42311-3.07442 3.13747v6.33626c0 1.7143 1.36799 3.1375 3.07442 3.1375z" fill="#1300ed"/><g fill="#521af2"><path d="m9.94849 12.9895c0-1.7309 1.37321-3.12524 3.05161-3.12524s3.0517 1.39434 3.0517 3.12524-1.3733 3.1252-3.0517 3.1252c-1.6793 0-3.05161-1.3848-3.05161-3.1252zm.26091.0105c0 1.5582 1.2434 2.8432 2.7907 2.8432 1.5474 0 2.7908-1.285 2.7908-2.8432s-1.2434-2.8433-2.7908-2.8433c-1.5473 0-2.7907 1.2851-2.7907 2.8433z"/><path d="m17.0393 9.17509c0 .18884-.1458.31961-.2986.31961-.1527 0-.2986-.13077-.2986-.31961 0-.18885.1459-.31962.2986-.31962.1528 0 .2986.13077.2986.31962z"/></g></g></svg>

<svg width="26" height="26" viewBox="0 0 26 26" fill="none" xmlns="http://www.w3.org/2000/svg">
<path d="M1 7.32577V18.6743C1 22.1524 3.91068 25 7.46234 25H18.5376C22.0893 25 25 22.1524 25 18.6743V7.32577C25 3.84766 22.0893 1.00003 18.5376 1.00003H7.46234C3.90017 0.989521 1 3.83715 1 7.32577Z" stroke="#1300ED" stroke-width="1.5" stroke-miterlimit="10"/>
<path d="M9.65851 6.42822H16.3415C18.1036 6.42822 19.5613 7.90619 19.5613 9.73207V16.2575C19.5613 18.0833 18.1036 19.5613 16.3415 19.5613H9.65851C7.90605 19.5613 6.43872 18.0824 6.43872 16.2575V9.73207C6.43872 7.90619 7.89645 6.42822 9.65851 6.42822ZM16.2259 19.3004C17.9324 19.3004 19.3004 17.8772 19.3004 16.1629V9.82664C19.3004 8.11228 17.9324 6.68917 16.2259 6.68917H9.7846C8.07817 6.68917 6.71018 8.11228 6.71018 9.82664V16.1629C6.71018 17.8772 8.07817 19.3004 9.7846 19.3004H16.2259Z" fill="#1300ED" stroke="#1300ED"/>
<path d="M9.94849 12.9895C9.94849 11.2586 11.3217 9.86426 13.0001 9.86426C14.6785 9.86426 16.0518 11.2586 16.0518 12.9895C16.0518 14.7204 14.6785 16.1147 13.0001 16.1147C11.3208 16.1147 9.94849 14.7299 9.94849 12.9895ZM10.2094 13C10.2094 14.5582 11.4528 15.8432 13.0001 15.8432C14.5475 15.8432 15.7909 14.5582 15.7909 13C15.7909 11.4418 14.5475 10.1567 13.0001 10.1567C11.4528 10.1567 10.2094 11.4418 10.2094 13Z" fill="#521AF2" stroke="#1300ED"/>
<path d="M17.0393 9.17509C17.0393 9.36393 16.8935 9.4947 16.7407 9.4947C16.588 9.4947 16.4421 9.36393 16.4421 9.17509C16.4421 8.98624 16.588 8.85547 16.7407 8.85547C16.8935 8.85547 17.0393 8.98624 17.0393 9.17509Z" fill="#521AF2" stroke="#1300ED"/>
</svg>
